packages/match-logos/mono/svg/mdlive.svg

<svg fill="none" height="24" viewBox="0 0 128 24" width="128" xmlns="http://www.w3.org/2000/svg"><path d="m112.79 0h14.613v4.66484h-11.895v4.83411h11.14v4.66355h-11.14v5.0021h12.071v2.1676c0 1.3806-1.108 2.5011-2.48 2.4973h-14.752v-21.36003c0-1.36421 1.095-2.46947 2.446-2.46820684zm-29.1055 0h3.7948c1.1668 0 2.2115.732632 2.618 1.83916l5.5004 14.94314 5.4983-14.93051c.41-1.115369 1.46-1.85179 2.633-1.85179h3.65l-9.5535 24h-4.5878zm-6.1725 0h2.7237v23.8295h-5.1982v-21.33224c.0038-1.38063 1.1114-2.49726 2.4758-2.49726zm-22.8547 0h2.7262c.6545 0 1.2839.262737 1.7496.730105.4657.467365.73 1.101475.73 1.763365v16.57013h9.3103c1.3631 0 2.467 1.1141 2.4707 2.4909v2.275h-16.9805v-23.8295zm-16.5954 19.0989c1.9056.1175 3.7709-.5911 5.129-1.949 1.3593-1.3579 2.0831-3.2337 1.9912-5.1663v-.067c.0944-1.93639-.6268-3.82228-1.9837-5.19155-1.3467-1.36926-3.2221-2.09179-5.1353-1.99073h-4.0151v14.36458h4.0151zm-9.2134-16.59911c0-1.38063 1.1101-2.49979 2.4757-2.49727221h6.7364c7.4135 0 12.5488 5.14106221 12.5488 11.84588221v.0682c0 6.7074-5.1353 11.9141-12.5614 11.9141h-9.2134v-21.33091zm-28.8485-2.49979h4.02267c.97924 0 1.88799.517895 2.39649 1.36421l5.39214 9.61639 5.3946-9.61639c.5072-.846315 1.4147-1.36168368 2.3939-1.36168368h4.0227v23.82817368h-5.163v-15.08965l-5.1014 8.55035h-3.1504l-5.0472-8.55035v15.08965h-5.1605v-23.82817368z" fill="#1f304c"/></svg>

<svg width="128" height="24" viewBox="0 0 128 24" fill="none" xmlns="http://www.w3.org/2000/svg">
<path d="M112.79 0H127.403V4.66484H115.508V9.49895H126.648V14.1625H115.508V19.1646H127.579V21.3322C127.579 22.7128 126.471 23.8333 125.099 23.8295H110.347V2.46947C110.347 1.10526 111.442 0 112.793 0.00126316L112.79 0ZM83.6845 0H87.4793C88.6461 0 89.6908 0.732632 90.0973 1.83916L95.5977 16.7823L101.096 1.85179C101.506 0.736421 102.556 0 103.729 0H107.379L97.8255 24H93.2377L83.6845 0ZM77.512 0H80.2357V23.8295H75.0375V2.49726C75.0413 1.11663 76.1489 0 77.5133 0H77.512ZM54.6573 0H57.3835C58.038 0 58.6674 0.262737 59.1331 0.730105C59.5988 1.19747 59.8631 1.83158 59.8631 2.49347V19.0636H69.1734C70.5365 19.0636 71.6404 20.1777 71.6441 21.5545V23.8295H54.6636V0H54.6573ZM38.0619 19.0989C39.9675 19.2164 41.8328 18.5078 43.1909 17.1499C44.5502 15.792 45.274 13.9162 45.1821 11.9836V11.9166C45.2765 9.98021 44.5553 8.09432 43.1984 6.72505C41.8517 5.35579 39.9763 4.63326 38.0631 4.73432H34.048V19.0989H38.0631H38.0619ZM28.8485 2.49979C28.8485 1.11916 29.9586 0 31.3242 0.00251779H38.0606C45.4741 0.00251779 50.6094 5.14358 50.6094 11.8484V11.9166C50.6094 18.624 45.4741 23.8307 38.048 23.8307H28.8346V2.49979H28.8485ZM0 0H4.02267C5.00191 0 5.91066 0.517895 6.41916 1.36421L11.8113 10.9806L17.2059 1.36421C17.7131 0.517895 18.6206 0.00252632 19.5998 0.00252632H23.6225V23.8307H18.4595V8.74105L13.3581 17.2914H10.2077L5.1605 8.74105V23.8307H0V0.00252632V0Z" fill="#1F304C"/>
</svg>
